packages/core/src/svgs/tokens/mono/CHRP.svg

<svg width="24" height="24" viewBox="0 0 24 24" fill="none" xmlns="http://www.w3.org/2000/svg">
<path fill-rule="evenodd" clip-rule="evenodd" d="M16.3735 9.80022C16.3753 10.0064 16.336 10.211 16.2582 10.4019C16.1804 10.593 16.0657 10.7667 15.9204 10.9131C15.7752 11.0595 15.6023 11.1757 15.4119 11.2551C15.2214 11.3344 15.0173 11.3752 14.811 11.3752C14.6048 11.3752 14.4005 11.3344 14.2102 11.2551C14.0198 11.1757 13.8469 11.0595 13.7017 10.9131C13.5564 10.7667 13.4417 10.593 13.3639 10.4019C13.2861 10.211 13.2468 10.0064 13.2486 9.80022C13.2477 9.59445 13.2875 9.39057 13.3657 9.20041C13.4439 9.01004 13.5588 8.83706 13.704 8.6913C13.8491 8.54554 14.0217 8.4299 14.2117 8.35099C14.4017 8.27207 14.6053 8.23145 14.811 8.23145C15.0168 8.23145 15.2204 8.27207 15.4104 8.35099C15.6004 8.4299 15.773 8.54554 15.9181 8.6913C16.0633 8.83706 16.1782 9.01004 16.2564 9.20041C16.3346 9.39057 16.3744 9.59445 16.3735 9.80022ZM15.1236 9.50024C15.1236 9.66591 15.0577 9.82487 14.9406 9.94212C14.8233 10.0594 14.6643 10.1251 14.4985 10.1251C14.3327 10.1251 14.1738 10.0594 14.0567 9.94212C13.9394 9.82487 13.8735 9.66591 13.8735 9.50024C13.8735 9.33443 13.9394 9.17547 14.0567 9.05826C14.1738 8.94104 14.3327 8.8752 14.4985 8.8752C14.6643 8.8752 14.8233 8.94104 14.9406 9.05826C15.0577 9.17547 15.1236 9.33443 15.1236 9.50024ZM15.4361 10.1251C15.5189 10.1251 15.5984 10.0923 15.657 10.0337C15.7157 9.97507 15.7486 9.89559 15.7486 9.81276C15.7486 9.72978 15.7157 9.6503 15.657 9.59168C15.5984 9.53305 15.5189 9.50024 15.4361 9.50024C15.3531 9.50024 15.2736 9.53305 15.215 9.59168C15.1565 9.6503 15.1236 9.72978 15.1236 9.81276C15.1236 9.89559 15.1565 9.97507 15.215 10.0337C15.2736 10.0923 15.3531 10.1251 15.4361 10.1251Z" fill="white"/>
<path fill-rule="evenodd" clip-rule="evenodd" d="M21.9994 12.4688C21.9994 16.7125 19.5994 20.3563 16.1306 22C18.9306 19.0187 18.8806 15.35 18.8745 14.6125V14.5313C18.7344 14.7029 18.5607 14.8442 18.3639 14.9463C18.1672 15.0484 17.9518 15.1092 17.7307 15.125C15.7744 15.125 13.8745 13.5376 11.8557 11.3876C9.84319 9.25008 8.87444 6.90626 8.87444 6.11876C8.87444 5.71251 9.09944 5.44375 9.2495 5.25626L9.34327 5.14376C9.43077 5.02501 9.49946 4.93125 9.49946 4.8125C9.49946 4.50625 9.14946 4.50625 8.7682 4.50625C7.38694 4.50625 5.6432 5.18751 4.22444 5.89375C5.13439 4.69127 6.30907 3.71452 7.65741 3.03927C9.00575 2.36402 10.4916 2.0084 11.9995 2C17.5245 2 21.9994 6.68751 21.9994 12.4688ZM3.39945 17.8125C4.03651 18.9375 4.87801 19.9338 5.88069 20.7501H8.2057C10.7994 20.7501 13.2494 19.0438 13.2494 16.3125C13.2494 13.5875 10.7994 11.3876 8.2057 11.3876H2.04944C1.86837 13.308 2.19153 15.2425 2.98695 17H12.6245C11.7682 17.4188 9.56202 18.25 7.5807 18.25C6.23695 18.25 4.62445 18.0313 3.39945 17.8125ZM11.9995 7.05001C11.9995 6.0125 13.2557 5.75 13.887 5.75C18.1245 5.75 18.2495 9.96875 18.2495 10.6001C18.2495 10.6938 18.2432 10.7875 18.2244 10.9063L20.2682 11.425C20.8056 11.5626 20.9245 12.1875 20.4682 12.4688L18.1994 13.875L17.8557 12.0125C17.6495 12.3625 17.3556 12.625 16.9744 12.625C16.0994 12.625 14.6308 11.5251 13.887 10.8626C13.1433 10.2 11.9995 8.35001 11.9995 7.05001Z" fill="white"/>
</svg>

<svg xmlns="http://www.w3.org/2000/svg" width="24" height="24" fill="none" viewBox="0 0 24 24">
    <path fill="#fff" fill-rule="evenodd" d="M16.374 9.8a1.56 1.56 0 0 1-.962 1.455A1.563 1.563 0 0 1 13.249 9.8a1.56 1.56 0 0 1 .963-1.449 1.562 1.562 0 0 1 2.162 1.45m-1.25-.3a.625.625 0 1 1-1.251 0 .625.625 0 0 1 1.25 0m.312.625a.312.312 0 1 0 0-.625.312.312 0 0 0 0 .625" clip-rule="evenodd"/>
    <path fill="#fff" fill-rule="evenodd" d="M22 12.469c0 4.243-2.4 7.887-5.87 9.531 2.8-2.981 2.75-6.65 2.745-7.387v-.082a1.63 1.63 0 0 1-1.144.594c-1.957 0-3.857-1.587-5.875-3.737-2.013-2.138-2.982-4.482-2.982-5.27 0-.405.225-.674.375-.862l.094-.112c.088-.119.156-.213.156-.332 0-.306-.35-.306-.73-.306-1.382 0-3.126.682-4.545 1.388A9.82 9.82 0 0 1 12 2c5.525 0 10 4.688 10 10.469M3.4 17.813a10.4 10.4 0 0 0 2.48 2.937h2.326c2.593 0 5.043-1.706 5.043-4.437 0-2.725-2.45-4.925-5.043-4.925H2.049c-.18 1.92.143 3.855.938 5.612h9.638c-.857.419-3.063 1.25-5.044 1.25-1.344 0-2.957-.219-4.182-.437M12 7.05c0-1.037 1.256-1.3 1.887-1.3 4.238 0 4.363 4.219 4.363 4.85 0 .094-.007.188-.026.306l2.044.519c.538.138.656.762.2 1.044L18.2 13.875l-.343-1.863c-.207.35-.5.613-.882.613-.875 0-2.343-1.1-3.087-1.762C13.144 10.2 12 8.35 12 7.05" clip-rule="evenodd"/>
</svg>
